X:127
T: SCHOEN IST DIE WELT
N: B0618
O: Europa, Mitteleuropa, Deutschland, Oberhessen; Nassau
R: Staende -, Handwerksburschen -, Wander - Lied
M: 2/4
L: 1/16
K: G
 | D4E2F2 | G6
GA | B2B2d2B2 | B2A2z2
d2 | c3BA2G2 | F2
E2D2c2 | B4A4 | G4z4

@@@ Tune index: 2345
